X:1
T:Title
%%score 1 { 2 | 3 }
L:1/8
Q:1/4=102
M:4/4
K:A
V:1 treble nm="Grand Piano, Soprano"
V:2 bass nm="Choir Pad, Bass"
V:3 bass 
V:1
 [CE]3 [DF] [CE]>[A,C] [CE]>[CA] | [Ec]4 [CA]2 z2 | [DF]2 [FA]2 [EA]2 [Ec]2 | [EB]6 z2 | %4
w: By~Wiliam~James~Kirkpatrick * * * * *||||
 [Ec]3 [Fd] [Ec]>[DB] [CA]>[DB] | [Ec]4 [CA]2 z2 | [DB]2 [FB]2 [EA]2 [EG]2 | [EA]6 z2 | %8
w: ||||
 [Fd]4 [EB]4 | [Ec]4 [Ee]4 | [FA]>[FA] [FA]>[FA] [GB]2 [Ec]2 | [EB]6 z2 | %12
w: ||||
 [Ec]3 [Fd] [Ec]>[DB] [CA]>[DB] | [Ec]4 [CA]2 z2 | [DB]2 [FB]2 [EA]2 [EG]2 | [EA]8 |] %16
w: ||||
V:2
 A,3 A, A,>E, A,>A, | A,4 A,2 z2 | A,2 A,2 A,2 A,2 | G,6 z2 | A,3 .A, A,>E, E,>E, | A,4 A,2 z2 | %6
 F,2 D2 C2 B,2 | C6 z2 | A,4 G,4 | A,4[K:treble] C4 | C>C C>C E2[K:bass] A,2 | G,6 z2 | %12
 A,3 .A, A,>E, E,>E, | A,4 A,2 z2 | F,2 D2 C2 B,2 | C8 |] %16
V:3
 A,,3 A,, A,,>A,, A,,>A,, | A,,4 A,,2 z2 | D,2 D,2 C,2 A,,2 | E,6 z2 | A,,3 .A,, A,,>A,, A,,>A,, | %5
 A,,4 A,,2 z2 | D,2 D,2 E,2 E,2 | A,,6 z2 | D,4 E,4 | z4 A,4 | F,>F, F,>F, E,2 z2 | E,6 z2 | %12
 A,,3 .A,, A,,>A,, A,,>A,, | A,,4 A,,2 z2 | D,2 D,2 E,2 E,2 | A,,8 |] %16

